X:1
T:Prélude opus 18 No. 15
T:Prélude opus 18 No. 15 
T:Frédéric François Chopin
%%score { ( 1 5 6 ) | ( 2 3 4 ) }
L:1/8
Q:1/4=71
M:4/4
K:Db
V:1 treble nm="Piano" snm="Pno."
V:5 treble 
V:6 treble 
V:2 bass 
V:3 bass 
V:4 bass 
V:1
!p!"^Sostenuto" (f>d A4 B2 | c6 d2 | e>f g4 f2 | f3 e d2({/e} (7:2:7efe=defg)) | (f>_d A4 B2 | %5
 c6 d2 | e>f g4 f2 | f3 e d2) (cd | e2 e4 f2 | gfed f4 | e_cBA B2{cBA} B>c | A2) (e2 d2 _f2 | %12
 e2 e4 =f2 | gfed f4- | fdcB c2{dcB} cd | B2) (f2 e2 g2 | fdcB c2{dcB} c>d | B2) (e2 f2 e2 | %18
 f6 e2) | (f>d A4 B2 | c6 d2 | e>f g4 f2 | f3 e d2 (7:2:7(=de=efa=g_g)) | (f>d A4 B2 | c6 d2 | %25
 e>f g4 c2 | e4) z4 ||[K:E] x8 | x8 | x8 | x8 | x8 | x8 | x8 |!p!(x"_cresc."GGG GGGG | GGGG GGGG | %36
 GGGG GGGG | GGGG GGGG | GGGG GGGG) |!ff! BBBB BBBB | BBBB BBBB | BBBB BBBB | %42
"_dim." [DGB] x x x x4 | x8 | x8 | x8 | x8 | x8 | x8 | x8 |!p!(x"_cresc."GGG GGGG | GGGG GGGG | %52
 GGGG GGGG | GGGG GGGG | GGGG GGGG) |!ff! (BBBB BBBB | BBBB BBBB | BBBB BBBB) | %58
!f! [B,DGB]!>(!GGG GGGG!>)! |!p! (GGGG GGGG | GGGG GGGG | GGGG GGGG | GG FF GG AA | %63
 [^B,DG]4 [CEG]2 [^A,CG]2 | [^B,DG]2 [CEG]2 [^A,CG]2 [CEG]2 | [CEG]2 [^B,DG]2 [DFG]2 [CEG]2 | %66
 [^B,DG]8) |!<(! GGGG GGGG | GGGG GGG!<)!G | GGGG!>(! GGG!>)!G |!f! CCCC!>(! CCCC!>)! | %71
 G,G,G,G,!<(! G,G,G,G,!<)! |!>(! G,G,G,G, G,G,G,G,!>)! |!>(! G,G,G,!>)!G, G,G,G,G, | %74
!>(! G,G,!>)!G,G,"_dim." _A,A,A,A, ||[K:Db]!p! (f>d A4 B2 | c6 d2 | e>f g4 f2 | %78
 f3 e d>=d (10:4:10(e/f/e/"_smorzando"d/e/=e/f/a/=g/_g/) | f>d A4 B2 | c2) z2 z2!f! b2- | %81
!>(! (b2 a2 g2 c2)!>)! |!>(! (f2 e2 d2 B2)!>)! | ([EG]8 | F8 | [EG]8 | [EG]8 |"_ritenuto" F8 | %88
 !fermata!F8) |] %89
V:2
!ped! x2 F4 F2!ped-up! |!ped! G4 x2!ped-up!!ped! F2!ped-up! | %2
!ped! G>A!ped-up!!ped! B4!ped-up!!ped! A2!ped-up! | %3
!ped! A2!ped-up!!ped! G2!ped-up!!ped! F2!ped-up!!ped! G2!ped-up! |!ped! x2 F6!ped-up! | %5
!ped! G6!ped-up!!ped! F2!ped-up! |!ped! G>A!ped-up!!ped! B4!ped-up!!ped! A2!ped-up! | %7
!ped! A2 G2!ped-up!!ped! F2 F2!ped-up! |!ped! x2 E2!ped-up!!ped! E2!ped-up!!ped! F2!ped-up! | %9
!ped! x2 G2!ped-up!!ped! x2 F2!ped-up! |!ped! x2 E2!ped-up!!ped! x2 E2!ped-up! | %11
!ped! x2 E2 x2 _F2!ped-up! |!ped! x2 E4!ped-up! =F2 |!ped! x2 G2!ped-up!!ped! x2 F2!ped-up! | %14
!ped! x2 F2!ped-up!!ped! x2 F2!ped-up! |!ped! x2 F2!ped-up!!ped! E2 G2!ped-up! | %16
!ped! F2 F2!ped-up!!ped! E2 F2!ped-up! |!ped! x2 E2 F2 E2!ped-up! |!ped! F4 F2 E2!ped-up! | %19
!ped! x2 F4 F2!ped-up! |!ped! G4 x2!ped-up!!ped! F2!ped-up! | %21
!ped! G>A!ped-up!!ped! B4!ped-up!!ped! A2!ped-up! | %22
!ped! A2!ped-up!!ped! G2!ped-up!!ped! F2!ped-up!!ped! G2!ped-up! |!ped! x2 F6!ped-up! | %24
!ped! G6!ped-up!!ped! F2!ped-up! |!ped! G>A!ped-up!!ped! B4!ped-up!!ped! E2!ped-up! | %26
!ped! G4 x4!ped-up! ||[K:E]"^sotto voce"!<(! (G,G,G,G, G,G,G,G, | G,G,G,G, G,G,G,G, | %29
 G,G,G,G, G,G,G,G,!<)! |!>(! G,G,G,G, G,G,G,G, | G,G,G,G, G,G,G,G, | G,G,G,G, G,G,G,G,!>)! | %33
!<(! G,G,G,G, G,G,G,G,)!<)! |!ped! x8!ped-up! | z4[I:staff -1] (C2 ^B,2) | %36
[I:staff +1] z4[I:staff -1] (D2 C2) | (C2 D2 E2 D2) |!ped! D8!ped-up! | %39
!ped! !>![EG]4!ped! !>![DG]4!ped-up! |!ped! !>![EG]4!ped! !>![DG]4!ped-up! | %41
!ped! !>![DG]4!ped! !>![D^^F]4!ped-up! |!ped![I:staff +1] x x x x G,G,G,G,!ped-up! | %43
!p!!<(! (G,G,G,G, G,G,G,G, | G,G,G,G, G,G,G,G, | G,G,G,G, G,G,G,G,!<)! |!>(! G,G,G,G, G,G,G,G, | %47
 G,G,G,G, G,G,G,G, | G,G,G,G, G,G,G,G,!>)! |!<(! G,G,G,G, G,G,G,G,)!<)! |!ped! x8!ped-up! | %51
 x4[I:staff -1] (C2 ^B,2) |[I:staff +1] x4[I:staff -1] (D2 C2) | (C2 D2 E2 D2) |!ped! D8!ped-up! | %55
!ped! !>![EG]4!ped! !>![DG]4!ped-up! |!ped! !>![EG]4!ped! !>![DG]4!ped-up! | %57
!ped! !>![DG]4!ped! !>![D^^F]4!ped-up! |!ped![I:staff +1] x x x x z4!ped-up! | %59
!ped! x x x x!ped! x4!ped!!ped-up! |!ped! x x x x x4!ped-up! | x x x x x4 | x x x x x4 | %63
!ped! x8!ped!!ped-up! | x8!ped!!ped-up! | x8!ped! |!ped! x8!ped-up! |!ped! x x x x x4!ped-up! | %68
!ped! x x x x x4!ped-up! |!ped! x x x x!ped! x4!ped-up! |!ped! x x x x!ped! x4!ped-up! | %71
!ped! x x x x!ped! x4!ped-up! |!ped! x x x x x4!ped!!ped-up! | x x x x x4!ped!!ped-up! | %74
 x x x x x4 ||[K:Db]!ped! x2 F4 x2!ped-up! |!ped! G4 x2!ped-up!!ped! F2!ped-up! | %77
!ped! G>A!ped-up! B4!ped! A2!ped-up! |!ped! A2!ped-up! G2!ped! F2!ped-up! G2 |!ped! x2 F6!ped-up! | %80
"_slentando" G2 x4 z2 | z8 | z8 |!ped! z A,A,!ped-up!A,!ped! A,A,A,A,!ped-up! | %84
!ped! A,A,A,A, A,A,A,A,!ped-up! |!ped! A,A,A,!ped-up!A,!ped! A,A,A,A,!ped-up! | %86
!ped! A,A,A,A, A,A,A,A,!ped-up! |!ped! A,A,A,A, A,A,A,A, | A,8!ped-up! |] %89
V:3
 x2 D4 D2 | E4 x2 D2 | C4 x2 D2 | C4 D2 C2 | x2 D6 | E6 D2 | C4 x2 D2 | C4 D2 D2 | x2 C2 _C2 C2 | %9
 B,2 x4 D2 | x2 _C2 x2 D2 | x2 _C2 D2 D2 | x2 _C4 C2 | x2 B,2 x2 D2 | x2 D2 x2 E2 | x2 D2 C2 E2 | %16
 D2 D2 x2 E2 | x2 C2 D2 C2 | D4 D2 C2 | x2 D4 D2 | E4 x2 D2 | C4 x2 D2 | C2 C2 D2 C2 | x2 D6 | %24
 E6 D2 | C4 x2 E2 | G4 x4 ||[K:E] G,,2 G,,2 C,2 ^B,,2 | G,,2 G,,2 D,2 C,2 | C,2 D,2 E,2 D,2 | %30
 D,8- | D,2 E,2 D,2 C,2 | D,2 C,2 ^B,,2 C,2 | ^B,,2 C,2 D,2 E,2 | D,8 | G,,2 G,,2 C,2 ^B,,2 | %36
 G,,2 G,,2 D,2 C,2 | C,2 D,2 E,2 D,2 | D,8 | E,,4 B,,4 | E,,4 B,,3 ^A,, | G,,4 D,4 | G,,4 x4 | %43
 G,,2 G,,2 C,2 ^B,,2 | G,,2 G,,2 D,2 C,2 | C,2 D,2 E,2 D,2 | D,8- | D,2 E,2 D,2 C,2 | %48
 G,,2 C,2 ^B,,2 C,2 | ^B,,2 C,2 D,2 E,2 | D,8 | G,,2 G,,2 C,2 ^B,,2 | G,,2 G,,2 D,2 C,2 | %53
 C,2 D,2 E,2 D,2 | D,8 | E,,4 B,,4 | E,,4 B,,3 ^A,, | G,,4 D,4 | G,,4 x4 | %59
 [F,,F,]4 [E,,E,]2 [C,,C,]2 | G,,,6 G,,2 | C,4 G,,4 | A,4 G,2 F,2 | G,G,G,G, G,G,G,G, | %64
 G,G,G,G, G,G,G,G, | G,G,G,G, G,G,G,G, | G,G,G,G, G,G,G,G, | [F,,F,]4 [E,,E,]2 [C,,C,]2 | G,,,8 | %69
 C,,4 G,,4 | ^E,,4 F,,4 | ^B,,,4 C,,4 | G,,,6 C,,2 | G,,,6 C,,2 | G,,,4 x4 ||[K:Db] x2 D4 x2 | %76
 E4 x2 D2 | C4 x2 D2 | C4 D2 C2 | x2 D6 | E2 x6 | x8 | x8 | x8 | x8 | x8 | x8 | x8 | x8 |] %89
V:4
 D,A,xA, A,A,xA, |xA,A,A, B,A,xA, |xA,/A/xA, A,A,xA, |xA,xA,xA,xA, | D,A,xA, A,A,A,A, | %5
xA,A,A, B,A,xA, |xA,/A/xA, A,A,xA, |xA,CA,xA,xA, | A,,A,xA,xA,D,D | G,DB,D D,A,xA, | %10
 E,A,xA, E,=G,xG, | A,,A,xA, B,A,xA, | A,,A,xA, A,A,xA, | E,G,xG, B,,F,B,F, | %14
 F,,F,B,F, F,,F,=A,F, | B,,F,xF,xF,xF, |xF,B,F, =A,F,xF, | B,,F,xF,xF,xF, |xF,F,F,xG,xA, | %19
 D,A,xA, A,A,xA, |xA,A,A, B,A,xA, |xA,/A/xA, A,A,xA, |xA,xA,xA,xA, | D,A,xA, A,A,A,A, | %24
xA,A,A, B,A,xA, |xA,/A/xA, A,A,xA, |xA,A,A, A,A,A,A, ||[K:E] (C,,2 D,,2 E,,2 D,,2 | %28
 D,,2 E,,2 F,,2 E,,2 | E,,2 G,,2 C,2 G,,2 | G,,8- | G,,2 C,2 G,,2 E,,2 | G,,2 E,,2 D,,2 C,,2 | %33
 D,,2 E,,2 D,,2 C,,2 | G,,8) | (C,,2 D,,2 E,,2 D,,2 | D,,2 E,,2 F,,2 E,,2 | E,,2 G,,2 C,2 G,,2) | %38
{/G,,,} G,,8 | (E,,,4 B,,,4 | E,,,4 B,,,3 ^A,,,) | G,,,4 D,,4 | G,,,4 x4 | (C,,2 D,,2 E,,2 D,,2 | %44
 D,,2 E,,2 F,,2 E,,2 | E,,2 G,,2 C,2 G,,2 | G,,8- | G,,2 C,2 G,,2 E,,2 | D,2 E,,2 D,,2 C,,2 | %49
 D,,2 E,,2 D,,2 C,,2) | G,,8 | (C,,2 D,,2 E,,2 D,,2 | D,,2 E,,2 F,,2 E,,2 | E,,2 G,,2 C,2 G,,2) | %54
{/G,,,} G,,8 | (E,,,4 B,,,4 | E,,,4 B,,,3 ^A,,,) | G,,,4 D,,4 | G,,,4 x4 | G,,4 G,,4 | G,,6 G,2 | %61
 G,4 G,4 | A,,4 G,,2 F,,2 | G,,4 [C,,G,,]4 | [G,,,G,,]2 [C,,G,,]6 | %65
 [C,,G,,]2 [G,,,G,,]4 [C,,G,,]2 | [G,,,G,,]8 | G,,G,,G,,G,, G,,2 x2 | G,,8 | G,,4 G,4 | ^E,4 F,4 | %71
 ^B,,4 C,4 | G,,6 G,,2 | G,,6 G,,2 | G,,2 G,,2 _A,=F,_G,_E, ||[K:Db] D,A,xA, A,A,A,A, | %76
xA,A,A, B,A,xA, |xA,/A/xA, A,A,xA, |xA,xA,xA,xA, | D,A,xA, A,A,A,A, |xA,A,A, B,A, x2 | x8 | x8 | %83
 A,,8 | D,8 | A,,8 | A,,8 | D,4 A,,4 | !fermata!D,,8 |] %89
V:5
 x8 | x8 | x8 | x8 | x8 | x8 | x8 | x8 | x8 | x8 | x8 | x8 | x8 | x8 | x8 | x8 | x8 | x8 | x8 | %19
 x8 | x8 | x8 | x8 | x8 | x8 | x8 | x8 ||[K:E] x8 | x8 | x8 | x8 | x8 | x8 | x8 | %34
 G,G,G,G, G,G,G,G, | G,G,G,G, G,G,G,G, | G,G,G,G, G,G,G,G, | G,G,G,G, G,G,G,G, | %38
 G,G,G,G, G,G,G,G, | B,B,B,B, B,B,B,B, | B,B,B,B, B,B,B,B, | B,B,B,B, B,B,B,B, | %42
 !>!B,[I:staff +1]G,G,G, x4 | x8 | x8 | x8 | x8 | x8 | x8 | x8 |[I:staff -1] G,G,G,G, G,G,G,G, | %51
 G,G,G,G, G,G,G,G, | G,G,G,G, G,G,G,G, | G,G,G,G, G,G,G,G, | G,G,G,G, G,G,G,G, | %55
 B,B,B,B, B,B,B,B, | B,B,B,B, B,B,B,B, | B,B,B,B, B,B,B,B, | x8 | [^B,^B]4 [Cc]4 | %60
 [Dcd]4 x2 [D^Bd]2 | [Ede]2 [Ece]2 [Dcd]2 [D^Bd]2 | [Cc]8 | x8 | x8 | x8 | x8 | ([^B,^B]4 [Cc]4 | %68
 [Dcd]4 x2 [D^Bd]2 | [Ede]2 [Ece]2 [Dcd]2 [D^Bd]2 | [GBc]4 [GAc]2 [FAc]2 | [DFG]4 [CFG]2 [CE^A]2 | %72
 [CE^A]4 [^B,DG]2 ([CEA]2) | [CE^A]4 [^B,DG]2) ([CEA]2 | [CE^A]2 [^B,DG]2) z4 ||[K:Db] x8 | x8 | %77
 x8 | x8 | x8 | x8 | x8 | x8 | x8 | x8 | x8 | x8 | x8 | x8 |] %89
V:6
 x8 | x8 | x8 | x8 | x8 | x8 | x8 | x8 | x8 | x8 | x8 | x8 | x8 | x8 | x8 | x8 | x8 | x8 | x8 | %19
 x8 | x8 | x8 | x8 | x8 | x8 | x8 | x8 ||[K:E] x8 | x8 | x8 | x8 | x8 | x8 | x8 | x8 | x8 | x8 | %37
 x8 | x8 | x8 | x8 | x8 | x8 | x8 | x8 | x8 | x8 | x8 | x8 | x8 | x8 | x8 | x8 | x8 | x8 | x8 | %56
 x8 | x8 | x8 | x8 | x8 | x8 | x8 | x8 | x8 | x8 | x8 | x8 | x8 | x8 | x8 | x8 | x8 | x8 | x8 || %75
[K:Db] x8 | x8 | x8 | x8 | x8 | x8 | x8 | x8 | B,4 C4 | D4- DDE>D | D2 C2 B2 C2 | C8 | D8 | D8 |] %89

